svg/clockface/clockfacefatrectsolid/clock_06_50.svg

<?xml version="1.0" encoding="UTF-8" standalone="no"?>
<svg
   height="1000"
   width="1000"
   version="1.1"
   viewBox="0 0 1000 1000"
   id="svg7"
   sodipodi:docname="clock_06_50.svg"
   xmlns:inkscape="http://www.inkscape.org/namespaces/inkscape"
   xmlns:sodipodi="http://sodipodi.sourceforge.net/DTD/sodipodi-0.dtd"
   xmlns="http://www.w3.org/2000/svg"
   xmlns:svg="http://www.w3.org/2000/svg">
  <defs
     id="defs11" />
  <sodipodi:namedview
     id="namedview9"
     pagecolor="#ffffff"
     bordercolor="#000000"
     borderopacity="0.25"
     inkscape:showpageshadow="2"
     inkscape:pageopacity="0.0"
     inkscape:pagecheckerboard="0"
     inkscape:deskcolor="#d1d1d1" />
  <path
     id="path15"
     style="color:#000000;fill:#000000;stroke-width:60;stroke-linecap:round;stroke-linejoin:round;-inkscape-stroke:none"
     d="M 339 129 C 223.17927 129 129 223.17927 129 339 L 129 659 C 129 774.82073 223.17927 869 339 869 L 659 869 C 774.82073 869 869 774.82073 869 659 L 869 339 C 869 223.17927 774.82073 129 659 129 L 339 129 z M 303.49414 340.35938 L 338.13477 360.35938 L 520 465.35938 A 40.004 40.004 0 0 1 540 500 L 540 640 L 540 680 L 460 680 L 460 640 L 460 523.09375 L 298.13477 429.64062 L 263.49414 409.64062 L 303.49414 340.35938 z " />
</svg>

<svg xmlns="http://www.w3.org/2000/svg" width="1000" height="1000"><path d="M339 129c-115.82 0-210 94.18-210 210v320c0 115.82 94.18 210 210 210h320c115.82 0 210-94.18 210-210V339c0-115.82-94.18-210-210-210H339zm-35.506 211.36 34.64 20L520 465.36A40.004 40.004 0 0 1 540 500v180h-80V523.094L298.135 429.64l-34.64-20 40-69.282z" style="-inkscape-stroke:none" stroke-width="60" stroke-linecap="round" stroke-linejoin="round"/></svg>
